X:1
T:I Bind Unto Myself Today (St. Patrick's Breastplate)
C:Charles Villiers Stanford, 1902
S:Open Hymnal Project; openhymnal.org/Abc/I_Bind_Unto_Myself_Today-St_Patricks_Breastplate.abc
M:3/4
L:1/8
Q:1/4=88
K:Dm
A2 | d4 d2 | c2 A2 c2 | f2 a2 gf | f2 e2 e2 | g2 e2 c2 | c2 e2 g2 |
f4 f2 | e4 A2 | d3 e fd | c2 A2 F2 | f4 c2 | d2 e2 fg |
a4 ga | f2 d2 e2 | d4 d2 | d4 ||
c2 | f4 f2 | f4 ga | g4 ^f2 | g4 a2 |
d4 d2 | c2 e2 g2 | f4 f2 | e4 A2 | d4 (3efd | c2 A2 F2 |
f4 c2 | d2 e2 fg | a4 ga | f2 d2 e2 | d4 d2 | d4 ||

#Lyrics
I bind unto myself today The strong Name of the Trinity, By invocation of the same, The Three in One and One in Three.  2. I bind this day to me forever, By power of faith, Christ's Incarnation; His baptism in the Jordan river; His death on cross for my salvation; His bursting from the spiced tomb; His riding up the Heavenly way; His coming at the day of doom; I bind unto myself today.  3. I bind unto myself the power Of the great love of cherubim; The sweet "well done" in judgment hour; The service of the seraphim; Confessors' faith, apostles' word, The patriarchs' prayers, the prophets' scrolls; All good deeds done unto the Lord, And purity of virgin souls.  4. I bind unto myself today The virtues of the starlit heaven, The glorious sun's life-giving ray, The whiteness of the moon at even, The flashing of the lightning free, The whirling wind's tempestuous shocks, The stable earth, the deep salt sea, Around the old eternal rocks.  5. I bind unto myself today The power of God to hold and lead, His eye to watch, His might to stay, His ear to hearken to my need. The wisdom of my God to teach, His hand to guide, His shield to ward; The Word of God to give me speech, His heavenly host to be my guard.  6. Against the demon snares of sin, The vice that gives temptation force, The natural lusts that war within, The hostile men that mar my course; Or few or many, far or nigh, In every place and in all hours, Against their fierce hostility I bind to me these holy powers.  7. I bind unto myself the Name, The strong Name of the Trinity; By invocation of the same, The Three in One, and One in Three Of whom all nature hath creation; Eternal Father, Spirit, Word; Praise to the Lord of my salvation, Salvation is of Christ the Lord.  8. Christ be with me, Christ within me, Christ behind me, Christ before me, Christ beside me, Christ to win me, Christ to comfort and restore me. Christ beneath me, Christ above me, Christ in quiet, Christ in danger, Christ in hearts of all that love me, Christ in mouth of friend and stranger.  9. I bind unto myself today The strong Name of the Trinity, By invocation of the same, The Three in One and One in Three. Of whom all nature hath creation; Eternal Father, Spirit, Word; Praise to the Lord of my salvation, Salvation is of Christ the Lord.

#Citations and References

Words: St. Patrick, 5th century. Translation: Cecil Frances Alexander, 1889.
Music: 'St. Patricks Breastplate' Charles Villiers Stanford, 1902.
Setting: "The English Hymnal", 1906.
copyright: public domain. Words trans. public domain (Alexander d. 1895). Music and setting public domain (Stanford d. 1924; pub. 1902/1906, both pre-1928).

openhymnal.org/Abc/I_Bind_Unto_Myself_Today-St_Patricks_Breastplate.abc
